images/svg/share.svg

<svg width="14" height="18" viewBox="0 0 14 18" fill="none" xmlns="http://www.w3.org/2000/svg">
<path d="M11.4074 0C9.9816 0 8.81481 1.22743 8.81481 2.72729C8.81481 3.16656 8.92096 3.58605 9.09837 3.95453L4.51275 7.17605C4.03748 6.62377 3.35212 6.27258 2.59255 6.27258C1.16679 6.27258 0 7.50001 0 8.99988C0 10.4997 1.16679 11.7272 2.59255 11.7272C3.353 11.7272 4.03729 11.3773 4.51275 10.8237L9.09837 14.0369C8.91698 14.4088 8.81481 14.8281 8.81481 15.2727C8.81481 16.7726 9.9816 18 11.4074 18C12.8331 18 13.9999 16.7726 13.9999 15.2727C13.9999 13.7728 12.8331 12.5454 11.4074 12.5454C10.7836 12.5454 10.2113 12.7863 9.7628 13.176L5.0476 9.87763C5.13712 9.60216 5.1854 9.30616 5.1854 8.99988C5.1854 8.69092 5.13875 8.39968 5.0476 8.12213L9.7466 4.81538C10.1976 5.21432 10.7756 5.45459 11.4075 5.45459C12.8332 5.45459 14 4.22716 14 2.72729C14 1.22743 12.8332 0 11.4075 0H11.4074Z" fill="white"/>
</svg>

<svg xmlns="http://www.w3.org/2000/svg" width="14" height="18" fill="none"><path fill="#fff" d="M11.407 0C9.982 0 8.815 1.227 8.815 2.727c0 .44.106.86.283 1.228L4.513 7.176a2.534 2.534 0 0 0-1.92-.903C1.167 6.273 0 7.5 0 9c0 1.5 1.167 2.727 2.593 2.727.76 0 1.444-.35 1.92-.903l4.585 3.213a2.811 2.811 0 0 0-.283 1.236c0 1.5 1.167 2.727 2.592 2.727C12.833 18 14 16.773 14 15.273c0-1.5-1.167-2.728-2.593-2.728-.623 0-1.196.241-1.644.631L5.048 9.878a2.84 2.84 0 0 0 0-1.756l4.699-3.307c.45.4 1.029.64 1.66.64C12.834 5.455 14 4.227 14 2.727 14 1.227 12.833 0 11.408 0Z"/></svg>
